(Exported by FreeCAD)
(Post Processor: grbl_post)
(Output Time:2020-11-23 16:15:41.391748)
(begin preamble)
G17 G90
G21
(begin operation: T3: 0.5mm Vbit)
(Path: T3: 0.5mm Vbit)
(T3: 0.5mm Vbit)
(begin toolchange)
; M6 T3
M3 S12000.0000
(finish operation: T3: 0.5mm Vbit)
(begin operation: MillFace)
(Path: MillFace)
(MillFace)
G0 Z5.0000
G0 X-12.9090 Y-14.1143
G0 Z3.0000
G1 X-12.9090 Y-14.1143 Z-0.0000 F180.00
G2 X-11.3610 Y-17.6309 Z-0.0000 I-3.2001 J-3.5077 F180.00
G2 X-12.0442 Y-20.8874 Z-0.0000 I-5.8354 J-0.4756 F180.00
G2 X-14.8140 Y-23.1454 Z-0.0000 I-4.9161 J3.2025 F180.00
G3 X-15.5098 Y-23.7780 Z-0.0000 I0.6703 J-1.4363 F180.00
G1 X-16.8113 Y-22.8742 Z-0.0000 F180.00
G2 X-15.4843 Y-21.7091 Z-0.0000 I2.6697 J-1.7023 F180.00
G3 X-13.2786 Y-19.8036 Z-0.0000 I-1.3044 J3.7394 F180.00
G3 X-13.1075 Y-16.6344 Z-0.0000 I-4.6059 J1.8379 F180.00
G3 X-15.3555 Y-14.5184 Z-0.0000 I-3.1161 J-1.0584 F180.00
G3 X-18.6259 Y-14.0012 Z-0.0000 I-2.9725 J-8.1964 F180.00
G1 X-23.5690 Y-14.0012 Z-0.0000 F180.00
G1 X-23.5690 Y-22.9742 Z-0.0000 F180.00
G2 X-22.0629 Y-22.5890 Z-0.0000 I1.4993 J-2.7254 F180.00
G2 X-18.4646 Y-22.5896 Z-0.0000 I1.7771 J-129.4308 F180.00
G2 X-17.8095 Y-22.6670 Z-0.0000 I-0.3145 J-5.4690 F180.00
G1 X-17.4707 Y-21.1187 Z-0.0000 F180.00
G2 X-17.4079 Y-21.1337 Z-0.0000 I-0.3326 J-1.5291 F180.00
G2 X-16.9577 Y-20.7488 Z-0.0000 I3.0773 J-3.1437 F180.00
G2 X-15.6850 Y-20.0536 Z-0.0000 I3.8612 J-5.5561 F180.00
G3 X-14.7359 Y-19.1758 Z-0.0000 I-1.0451 J2.0820 F180.00
G3 X-14.6736 Y-16.9782 Z-0.0000 I-3.1969 J1.1904 F180.00
G3 X-15.4590 Y-16.1881 Z-0.0000 I-1.4345 J-0.6405 F180.00
G3 X-18.6345 Y-15.5862 Z-0.0000 I-2.8726 J-6.4774 F180.00
G1 X-21.9840 Y-15.5862 Z-0.0000 F180.00
G1 X-21.9840 Y-21.0040 Z-0.0000 F180.00
G2 X-18.3986 Y-21.0060 Z-0.0000 I1.7449 J-86.1561 F180.00
G2 X-17.4707 Y-21.1187 Z-0.0000 I-0.3919 J-7.0994 F180.00
G1 X-17.8095 Y-22.6670 Z-0.0000 F180.00
G2 X-16.9084 Y-23.0328 Z-0.0000 I-0.5946 J-2.7582 F180.00
G2 X-16.8113 Y-22.8742 Z-0.0000 I1.1311 J-0.5838 F180.00
G1 X-15.5098 Y-23.7780 Z-0.0000 F180.00
G3 X-15.5551 Y-25.3027 Z-0.0000 I1.3662 J-0.8036 F180.00
G1 X-11.4106 Y-33.4150 Z-0.0000 F180.00
G1 X-12.9589 Y-33.4150 Z-0.0000 F180.00
G1 X-17.0876 Y-25.0570 Z-0.0000 F180.00
G3 X-18.5087 Y-24.1740 Z-0.0000 I-1.4211 J-0.7020 F180.00
G1 X-22.0629 Y-24.1740 Z-0.0000 F180.00
G3 X-23.6479 Y-25.7590 Z-0.0000 I0.0000 J-1.5850 F180.00
G1 X-23.6479 Y-33.4150 Z-0.0000 F180.00
G1 X-25.1540 Y-33.4150 Z-0.0000 F180.00
G1 X-25.1540 Y-12.4162 Z-0.0000 F180.00
G1 X-18.6173 Y-12.4162 Z-0.0000 F180.00
G2 X-14.1193 Y-13.3110 Z-0.0000 I0.3121 J-10.1834 F180.00
G2 X-12.9090 Y-14.1143 Z-0.0000 I-1.9898 J-4.3111 F180.00
G0 X-12.9090 Y-14.1143 Z5.0000
G0 X-16.1245 Y-17.6289 Z5.0000
G0 X-16.1245 Y-17.6289 Z3.0000
G1 X-16.1245 Y-17.6289 Z-0.0000 F180.00
G3 X-18.6431 Y-17.1712 Z-0.0000 I-2.2235 J-5.0766 F180.00
G1 X-20.3990 Y-17.1712 Z-0.0000 F180.00
G1 X-20.3990 Y-19.4190 Z-0.0000 F180.00
G2 X-18.1510 Y-19.4325 Z-0.0000 I0.9925 J-21.8181 F180.00
G2 X-17.8789 Y-19.4590 Z-0.0000 I-0.7223 J-8.8272 F180.00
G1 X-16.9577 Y-20.7488 Z-0.0000 F180.00
G1 X-17.8789 Y-19.4590 Z-0.0000 F180.00
G2 X-16.3337 Y-18.5947 Z-0.0000 I5.3675 J-7.7822 F180.00
G3 X-16.1043 Y-18.1393 Z-0.0000 I-0.1529 J0.3625 F180.00
G3 X-16.1245 Y-17.6289 Z-0.0000 I-7.6664 J-0.0483 F180.00
G0 X-16.1245 Y-17.6289 Z5.0000
G0 X-33.8775 Y-13.0448 Z5.0000
G0 X-33.8775 Y-13.0448 Z3.0000
G1 X-33.8775 Y-13.0448 Z-0.0000 F180.00
G1 X-37.0241 Y-13.0448 Z-0.0000 F180.00
G3 X-38.6091 Y-14.6298 Z-0.0000 I0.0000 J-1.5850 F180.00
G1 X-38.6091 Y-31.2125 Z-0.0000 F180.00
G3 X-37.0241 Y-32.7975 Z-0.0000 I1.5850 J-0.0000 F180.00
G1 X-33.8775 Y-32.7975 Z-0.0000 F180.00
G1 X-33.8775 Y-33.4150 Z-0.0000 F180.00
G1 X-44.7356 Y-33.4150 Z-0.0000 F180.00
G1 X-44.7356 Y-32.7975 Z-0.0000 F180.00
G1 X-41.7112 Y-32.7975 Z-0.0000 F180.00
G3 X-40.1262 Y-31.2125 Z-0.0000 I-0.0000 J1.5850 F180.00
G1 X-40.1262 Y-14.6298 Z-0.0000 F180.00
G3 X-41.7112 Y-13.0448 Z-0.0000 I-1.5850 J-0.0000 F180.00
G1 X-44.7356 Y-13.0448 Z-0.0000 F180.00
G1 X-44.7356 Y-12.4162 Z-0.0000 F180.00
G1 X-33.8775 Y-12.4162 Z-0.0000 F180.00
G1 X-33.8775 Y-13.0448 Z-0.0000 F180.00
G0 X-33.8775 Y-13.0448 Z5.0000
G0 X-56.1296 Y-20.2235 Z5.0000
G0 X-56.1296 Y-20.2235 Z3.0000
G1 X-56.1296 Y-20.2235 Z-0.0000 F180.00
G1 X-51.8739 Y-33.4150 Z-0.0000 F180.00
G1 X-53.4305 Y-33.4150 Z-0.0000 F180.00
G1 X-54.5143 Y-29.5918 Z-0.0000 F180.00
G3 X-56.0392 Y-28.4391 Z-0.0000 I-1.5249 J-0.4323 F180.00
G1 X-56.0179 Y-26.8544 Z-0.0000 F180.00
G2 X-55.6452 Y-26.8875 Z-0.0000 I-0.0899 J-3.1248 F180.00
G1 X-59.6245 Y-14.5528 Z-0.0000 F180.00
G1 X-62.0663 Y-21.9737 Z-0.0000 F180.00
G1 X-63.6818 Y-26.8833 Z-0.0000 F180.00
G2 X-63.3254 Y-26.8541 Z-0.0000 I0.3803 J-2.4474 F180.00
G1 X-56.0392 Y-26.8541 Z-0.0000 F180.00
G1 X-56.0179 Y-26.8544 Z-0.0000 F180.00
G1 X-56.0392 Y-28.4391 Z-0.0000 F180.00
G1 X-63.3254 Y-28.4391 Z-0.0000 F180.00
G3 X-64.8485 Y-29.5855 Z-0.0000 I-0.0000 J-1.5850 F180.00
G1 X-65.9512 Y-33.4150 Z-0.0000 F180.00
G1 X-67.4996 Y-33.4150 Z-0.0000 F180.00
G1 X-60.5901 Y-12.4162 Z-0.0000 F180.00
G1 X-58.6484 Y-12.4162 Z-0.0000 F180.00
G1 X-56.1296 Y-20.2235 Z-0.0000 F180.00
G0 X-56.1296 Y-20.2235 Z5.0000
G0 X-59.1465 Y-21.1968 Z5.0000
G0 X-59.1465 Y-21.1968 Z3.0000
G1 X-59.1465 Y-21.1968 Z-0.0000 F180.00
G1 X-57.8328 Y-25.2691 Z-0.0000 F180.00
G1 X-61.4820 Y-25.2691 Z-0.0000 F180.00
G1 X-60.5607 Y-22.4691 Z-0.0000 F180.00
G1 X-62.0663 Y-21.9737 Z-0.0000 F180.00
G1 X-60.5607 Y-22.4691 Z-0.0000 F180.00
G1 X-59.6394 Y-19.6691 Z-0.0000 F180.00
G1 X-59.1465 Y-21.1968 Z-0.0000 F180.00
G0 X-59.1465 Y-21.1968 Z5.0000
G0 X-94.7883 Y-21.1968 Z5.0000
G0 X-94.7883 Y-21.1968 Z3.0000
G1 X-94.7883 Y-21.1968 Z-0.0000 F180.00
G1 X-94.7883 Y-33.4150 Z-0.0000 F180.00
G1 X-96.8297 Y-33.4150 Z-0.0000 F180.00
G1 X-103.1681 Y-18.8617 Z-0.0000 F180.00
G3 X-105.4095 Y-18.1195 Z-0.0000 I-1.4532 J-0.6329 F180.00
G3 X-106.2063 Y-19.4946 Z-0.0000 I0.7882 J-1.3751 F180.00
G1 X-106.2063 Y-33.4150 Z-0.0000 F180.00
G1 X-107.7456 Y-33.4150 Z-0.0000 F180.00
G1 X-107.7456 Y-12.4162 Z-0.0000 F180.00
G1 X-105.6646 Y-12.4162 Z-0.0000 F180.00
G1 X-99.3796 Y-27.0187 Z-0.0000 F180.00
G3 X-97.4438 Y-27.9027 Z-0.0000 I1.4559 J0.6266 F180.00
G1 X-96.8465 Y-29.3702 Z-0.0000 F180.00
G3 X-96.3733 Y-29.1565 Z-0.0000 I-1.8329 J4.6883 F180.00
G1 X-96.3733 Y-30.4936 Z-0.0000 F180.00
G1 X-96.8601 Y-29.3758 Z-0.0000 F180.00
G1 X-96.8465 Y-29.3702 Z-0.0000 F180.00
G1 X-97.4438 Y-27.9027 Z-0.0000 F180.00
G3 X-96.3387 Y-26.3943 Z-0.0000 I-0.4800 J1.5106 F180.00
G1 X-96.3188 Y-12.4162 Z-0.0000 F180.00
G1 X-94.7883 Y-12.4162 Z-0.0000 F180.00
G1 X-94.7883 Y-21.1968 Z-0.0000 F180.00
G0 X-94.7883 Y-21.1968 Z5.0000
G0 X-105.4095 Y-18.1195 Z5.0000
G0 X-105.4095 Y-18.1195 Z3.0000
G1 X-105.4095 Y-18.1195 Z-0.0000 F180.00
G1 X-106.0868 Y-16.6871 Z-0.0000 F180.00
G3 X-106.1606 Y-16.7244 Z-0.0000 I0.3179 J-0.7211 F180.00
G1 X-106.1606 Y-15.2730 Z-0.0000 F180.00
G1 X-105.6358 Y-16.4923 Z-0.0000 F180.00
G3 X-106.0868 Y-16.6871 Z-0.0000 I1.9632 J-5.1644 F180.00
G1 X-105.4095 Y-18.1195 Z-0.0000 F180.00
G0 X-105.4095 Y-18.1195 Z5.0000
G0 X-114.5934 Y-19.3434 Z5.0000
G0 X-114.5934 Y-19.3434 Z3.0000
G1 X-114.5934 Y-19.3434 Z-0.0000 F180.00
G2 X-114.5593 Y-19.6310 Z-0.0000 I-9.8750 J-1.3159 F180.00
G2 X-114.4643 Y-24.3241 Z-0.0000 I-43.5424 J-3.2296 F180.00
G2 X-115.3497 Y-29.1788 Z-0.0000 I-11.3052 J-0.4461 F180.00
G2 X-117.5378 Y-32.0456 Z-0.0000 I-6.3119 J2.5491 F180.00
G2 X-122.2412 Y-33.4022 Z-0.0000 I-4.2576 J5.9292 F180.00
G1 X-122.2187 Y-31.8174 Z-0.0000 F180.00
G2 X-123.2599 Y-31.6704 Z-0.0000 I0.3518 J6.2520 F180.00
G3 X-118.8586 Y-31.0329 Z-0.0000 I1.3903 J5.9139 F180.00
G3 X-116.8061 Y-28.5506 Z-0.0000 I-2.8014 J4.4060 F180.00
G3 X-116.0491 Y-24.2981 Z-0.0000 I-9.0341 J3.8019 F180.00
G2 X-116.5628 Y-27.9231 Z-0.0000 I-10.3782 J-0.3782 F180.00
G2 X-118.4972 Y-30.7821 Z-0.0000 I-5.3981 J1.5685 F180.00
G2 X-122.2187 Y-31.8174 Z-0.0000 I-3.3112 J4.6962 F180.00
G1 X-122.2412 Y-33.4022 Z-0.0000 F180.00
G2 X-124.8686 Y-32.8170 Z-0.0000 I0.3334 J7.6867 F180.00
G2 X-127.9334 Y-29.9177 Z-0.0000 I2.6527 J5.8737 F180.00
G2 X-128.9865 Y-26.3251 Z-0.0000 I9.4850 J4.7308 F180.00
G2 X-129.0872 Y-21.5270 Z-0.0000 I43.8142 J3.3202 F180.00
G2 X-128.2274 Y-16.6073 Z-0.0000 I11.7476 J0.4819 F180.00
G2 X-125.5478 Y-13.3555 Z-0.0000 I6.0924 J-2.2904 F180.00
G2 X-119.7933 Y-12.7058 Z-0.0000 I3.6391 J-6.4233 F180.00
G2 X-115.8518 Y-15.6592 Z-0.0000 I-1.7124 J-6.3923 F180.00
G2 X-114.5934 Y-19.3434 Z-0.0000 I-8.6166 J-5.0001 F180.00
G0 X-114.5934 Y-19.3434 Z5.0000
G0 X-116.1650 Y-19.5526 Z5.0000
G0 X-116.1650 Y-19.5526 Z3.0000
G1 X-116.1650 Y-19.5526 Z-0.0000 F180.00
G2 X-116.1333 Y-19.8250 Z-0.0000 I-8.3005 J-1.1051 F180.00
G3 X-117.1949 Y-16.5035 Z-0.0000 I-8.3323 J-0.8326 F180.00
G3 X-120.2307 Y-14.2309 Z-0.0000 I-4.3107 J-2.5943 F180.00
G3 X-124.7226 Y-14.7107 Z-0.0000 I-1.6784 J-5.5539 F180.00
G3 X-126.7632 Y-17.2170 Z-0.0000 I2.5998 J-4.2006 F180.00
G3 X-127.5024 Y-21.5516 Z-0.0000 I9.4985 J-3.8500 F180.00
G3 X-127.4128 Y-26.1283 Z-0.0000 I42.7352 J-1.4529 F180.00
G3 X-126.2899 Y-29.5784 Z-0.0000 I8.2476 J0.7767 F180.00
G3 X-123.2599 Y-31.6704 Z-0.0000 I3.8969 J2.4039 F180.00
G2 X-126.2899 Y-29.5784 Z-0.0000 I0.8670 J4.4959 F180.00
G2 X-127.4128 Y-26.1283 Z-0.0000 I7.1247 J4.2268 F180.00
G2 X-127.5024 Y-21.5516 Z-0.0000 I42.6457 J3.1238 F180.00
G2 X-126.7632 Y-17.2170 Z-0.0000 I10.2377 J0.4846 F180.00
G2 X-124.7226 Y-14.7107 Z-0.0000 I4.6404 J-1.6943 F180.00
G2 X-120.2307 Y-14.2309 Z-0.0000 I2.8136 J-5.0741 F180.00
G2 X-117.1949 Y-16.5035 Z-0.0000 I-1.2749 J-4.8669 F180.00
G2 X-116.1650 Y-19.5526 Z-0.0000 I-7.2707 J-4.1542 F180.00
G0 X-116.1650 Y-19.5526 Z5.0000
G0 X-116.1333 Y-19.8250 Z5.0000
G0 X-116.1333 Y-19.8250 Z3.0000
G1 X-116.1333 Y-19.8250 Z-0.0000 F180.00
G2 X-116.0491 Y-24.2981 Z-0.0000 I-42.4043 J-3.0356 F180.00
G3 X-116.1333 Y-19.8250 Z-0.0000 I-42.4885 J1.4375 F180.00
G1 X-116.1333 Y-19.8250 Z-0.1000 F180.00
G3 X-117.1949 Y-16.5035 Z-0.1000 I-8.3323 J-0.8326 F180.00
G3 X-120.2307 Y-14.2309 Z-0.1000 I-4.3107 J-2.5943 F180.00
G3 X-124.7226 Y-14.7107 Z-0.1000 I-1.6784 J-5.5539 F180.00
G3 X-126.7632 Y-17.2170 Z-0.1000 I2.5998 J-4.2006 F180.00
G3 X-127.5024 Y-21.5516 Z-0.1000 I9.4985 J-3.8500 F180.00
G3 X-127.4128 Y-26.1283 Z-0.1000 I42.7352 J-1.4529 F180.00
G3 X-126.2899 Y-29.5784 Z-0.1000 I8.2476 J0.7767 F180.00
G3 X-123.2599 Y-31.6704 Z-0.1000 I3.8969 J2.4039 F180.00
G2 X-126.2899 Y-29.5784 Z-0.1000 I0.8670 J4.4959 F180.00
G2 X-127.4128 Y-26.1283 Z-0.1000 I7.1247 J4.2268 F180.00
G2 X-127.5024 Y-21.5516 Z-0.1000 I42.6457 J3.1238 F180.00
G2 X-126.7632 Y-17.2170 Z-0.1000 I10.2377 J0.4846 F180.00
G2 X-124.7226 Y-14.7107 Z-0.1000 I4.6404 J-1.6943 F180.00
G2 X-120.2307 Y-14.2309 Z-0.1000 I2.8136 J-5.0741 F180.00
G2 X-117.1949 Y-16.5035 Z-0.1000 I-1.2749 J-4.8669 F180.00
G2 X-116.1333 Y-19.8250 Z-0.1000 I-7.2707 J-4.1542 F180.00
G1 X-116.1333 Y-19.8250 Z-0.1000 F180.00
G2 X-116.0491 Y-24.2981 Z-0.1000 I-42.4043 J-3.0356 F180.00
G3 X-116.1333 Y-19.8250 Z-0.1000 I-42.4885 J1.4375 F180.00
G0 X-116.1333 Y-19.8250 Z5.0000
G0 X-114.5535 Y-19.7108 Z5.0000
G0 X-114.5535 Y-19.7108 Z2.9000
G1 X-114.5535 Y-19.7108 Z-0.1000 F180.00
G2 X-114.4643 Y-24.3241 Z-0.1000 I-43.5483 J-3.1498 F180.00
G2 X-115.3497 Y-29.1788 Z-0.1000 I-11.3052 J-0.4461 F180.00
G2 X-117.5378 Y-32.0456 Z-0.1000 I-6.3119 J2.5491 F180.00
G2 X-122.2412 Y-33.4022 Z-0.1000 I-4.2576 J5.9292 F180.00
G1 X-122.2187 Y-31.8174 Z-0.1000 F180.00
G2 X-123.2599 Y-31.6704 Z-0.1000 I0.3518 J6.2520 F180.00
G3 X-118.8586 Y-31.0329 Z-0.1000 I1.3903 J5.9139 F180.00
G3 X-116.8061 Y-28.5506 Z-0.1000 I-2.8014 J4.4060 F180.00
G3 X-116.0491 Y-24.2981 Z-0.1000 I-9.0341 J3.8019 F180.00
G2 X-116.5628 Y-27.9231 Z-0.1000 I-10.3782 J-0.3782 F180.00
G2 X-118.4972 Y-30.7821 Z-0.1000 I-5.3981 J1.5685 F180.00
G2 X-122.2187 Y-31.8174 Z-0.1000 I-3.3112 J4.6962 F180.00
G1 X-122.2412 Y-33.4022 Z-0.1000 F180.00
G2 X-124.8686 Y-32.8170 Z-0.1000 I0.3334 J7.6867 F180.00
G2 X-127.9334 Y-29.9177 Z-0.1000 I2.6527 J5.8737 F180.00
G2 X-128.9865 Y-26.3251 Z-0.1000 I9.4850 J4.7308 F180.00
G2 X-129.0872 Y-21.5270 Z-0.1000 I43.8142 J3.3202 F180.00
G2 X-128.2274 Y-16.6073 Z-0.1000 I11.7476 J0.4819 F180.00
G2 X-125.5478 Y-13.3555 Z-0.1000 I6.0924 J-2.2904 F180.00
G2 X-119.7933 Y-12.7058 Z-0.1000 I3.6391 J-6.4233 F180.00
G2 X-115.8518 Y-15.6592 Z-0.1000 I-1.7124 J-6.3923 F180.00
G2 X-114.5593 Y-19.6310 Z-0.1000 I-8.6166 J-5.0001 F180.00
G2 X-114.5535 Y-19.7108 Z-0.1000 I-43.5424 J-3.2296 F180.00
G0 X-114.5535 Y-19.7108 Z5.0000
G0 X-107.7456 Y-19.7108 Z5.0000
G0 X-107.7456 Y-19.7108 Z2.9000
G1 X-107.7456 Y-19.7108 Z-0.1000 F180.00
G1 X-107.7456 Y-12.4162 Z-0.1000 F180.00
G1 X-105.6646 Y-12.4162 Z-0.1000 F180.00
G1 X-99.3796 Y-27.0187 Z-0.1000 F180.00
G3 X-97.4438 Y-27.9027 Z-0.1000 I1.4559 J0.6266 F180.00
G1 X-96.8465 Y-29.3702 Z-0.1000 F180.00
G3 X-96.3733 Y-29.1565 Z-0.1000 I-1.8329 J4.6883 F180.00
G1 X-96.3733 Y-30.4936 Z-0.1000 F180.00
G1 X-96.8601 Y-29.3758 Z-0.1000 F180.00
G1 X-96.8465 Y-29.3702 Z-0.1000 F180.00
G1 X-97.4438 Y-27.9027 Z-0.1000 F180.00
G3 X-96.3387 Y-26.3943 Z-0.1000 I-0.4800 J1.5106 F180.00
G1 X-96.3188 Y-12.4162 Z-0.1000 F180.00
G1 X-94.7883 Y-12.4162 Z-0.1000 F180.00
G1 X-94.7883 Y-33.4150 Z-0.1000 F180.00
G1 X-96.8297 Y-33.4150 Z-0.1000 F180.00
G1 X-103.1681 Y-18.8617 Z-0.1000 F180.00
G3 X-105.4095 Y-18.1195 Z-0.1000 I-1.4532 J-0.6329 F180.00
G3 X-106.2063 Y-19.4946 Z-0.1000 I0.7882 J-1.3751 F180.00
G1 X-106.2063 Y-33.4150 Z-0.1000 F180.00
G1 X-107.7456 Y-33.4150 Z-0.1000 F180.00
G1 X-107.7456 Y-19.7108 Z-0.1000 F180.00
G0 X-107.7456 Y-19.7108 Z5.0000
G0 X-105.4095 Y-18.1195 Z5.0000
G0 X-105.4095 Y-18.1195 Z2.9000
G1 X-105.4095 Y-18.1195 Z-0.1000 F180.00
G1 X-106.0868 Y-16.6871 Z-0.1000 F180.00
G3 X-106.1606 Y-16.7244 Z-0.1000 I0.3179 J-0.7211 F180.00
G1 X-106.1606 Y-15.2730 Z-0.1000 F180.00
G1 X-105.6358 Y-16.4923 Z-0.1000 F180.00
G3 X-106.0868 Y-16.6871 Z-0.1000 I1.9632 J-5.1644 F180.00
G1 X-105.4095 Y-18.1195 Z-0.1000 F180.00
G0 X-105.4095 Y-18.1195 Z5.0000
G0 X-66.6619 Y-30.8692 Z5.0000
G0 X-66.6619 Y-30.8692 Z2.9000
G1 X-66.6619 Y-30.8692 Z-0.1000 F180.00
G1 X-60.5901 Y-12.4162 Z-0.1000 F180.00
G1 X-58.6484 Y-12.4162 Z-0.1000 F180.00
G1 X-51.8739 Y-33.4150 Z-0.1000 F180.00
G1 X-53.4305 Y-33.4150 Z-0.1000 F180.00
G1 X-54.5143 Y-29.5918 Z-0.1000 F180.00
G3 X-56.0392 Y-28.4391 Z-0.1000 I-1.5249 J-0.4323 F180.00
G1 X-56.0179 Y-26.8544 Z-0.1000 F180.00
G2 X-55.6452 Y-26.8875 Z-0.1000 I-0.0899 J-3.1248 F180.00
G1 X-59.6245 Y-14.5528 Z-0.1000 F180.00
G1 X-62.0663 Y-21.9737 Z-0.1000 F180.00
G1 X-63.6818 Y-26.8833 Z-0.1000 F180.00
G2 X-63.3254 Y-26.8541 Z-0.1000 I0.3803 J-2.4474 F180.00
G1 X-56.0392 Y-26.8541 Z-0.1000 F180.00
G1 X-56.0179 Y-26.8544 Z-0.1000 F180.00
G1 X-56.0392 Y-28.4391 Z-0.1000 F180.00
G1 X-63.3254 Y-28.4391 Z-0.1000 F180.00
G3 X-64.8485 Y-29.5855 Z-0.1000 I-0.0000 J-1.5850 F180.00
G1 X-65.9512 Y-33.4150 Z-0.1000 F180.00
G1 X-67.4996 Y-33.4150 Z-0.1000 F180.00
G1 X-66.6619 Y-30.8692 Z-0.1000 F180.00
G0 X-66.6619 Y-30.8692 Z5.0000
G0 X-61.4820 Y-25.2691 Z5.0000
G0 X-61.4820 Y-25.2691 Z2.9000
G1 X-61.4820 Y-25.2691 Z-0.1000 F180.00
G1 X-60.5607 Y-22.4691 Z-0.1000 F180.00
G1 X-62.0663 Y-21.9737 Z-0.1000 F180.00
G1 X-60.5607 Y-22.4691 Z-0.1000 F180.00
G1 X-59.6394 Y-19.6691 Z-0.1000 F180.00
G1 X-57.8328 Y-25.2691 Z-0.1000 F180.00
G1 X-61.4820 Y-25.2691 Z-0.1000 F180.00
G0 X-61.4820 Y-25.2691 Z5.0000
G0 X-44.7356 Y-32.7975 Z5.0000
G0 X-44.7356 Y-32.7975 Z2.9000
G1 X-44.7356 Y-32.7975 Z-0.1000 F180.00
G1 X-41.7112 Y-32.7975 Z-0.1000 F180.00
G3 X-40.1262 Y-31.2125 Z-0.1000 I-0.0000 J1.5850 F180.00
G1 X-40.1262 Y-14.6298 Z-0.1000 F180.00
G3 X-41.7112 Y-13.0448 Z-0.1000 I-1.5850 J-0.0000 F180.00
G1 X-44.7356 Y-13.0448 Z-0.1000 F180.00
G1 X-44.7356 Y-12.4162 Z-0.1000 F180.00
G1 X-33.8775 Y-12.4162 Z-0.1000 F180.00
G1 X-33.8775 Y-13.0448 Z-0.1000 F180.00
G1 X-37.0241 Y-13.0448 Z-0.1000 F180.00
G3 X-38.6091 Y-14.6298 Z-0.1000 I0.0000 J-1.5850 F180.00
G1 X-38.6091 Y-31.2125 Z-0.1000 F180.00
G3 X-37.0241 Y-32.7975 Z-0.1000 I1.5850 J-0.0000 F180.00
G1 X-33.8775 Y-32.7975 Z-0.1000 F180.00
G1 X-33.8775 Y-33.4150 Z-0.1000 F180.00
G1 X-44.7356 Y-33.4150 Z-0.1000 F180.00
G1 X-44.7356 Y-32.7975 Z-0.1000 F180.00
G0 X-44.7356 Y-32.7975 Z5.0000
G0 X-25.1540 Y-32.7975 Z5.0000
G0 X-25.1540 Y-32.7975 Z2.9000
G1 X-25.1540 Y-32.7975 Z-0.1000 F180.00
G1 X-25.1540 Y-12.4162 Z-0.1000 F180.00
G1 X-18.6173 Y-12.4162 Z-0.1000 F180.00
G2 X-14.1193 Y-13.3110 Z-0.1000 I0.3121 J-10.1834 F180.00
G2 X-11.3610 Y-17.6309 Z-0.1000 I-1.9898 J-4.3111 F180.00
G2 X-12.0442 Y-20.8874 Z-0.1000 I-5.8354 J-0.4756 F180.00
G2 X-14.8140 Y-23.1454 Z-0.1000 I-4.9161 J3.2025 F180.00
G3 X-15.5098 Y-23.7780 Z-0.1000 I0.6703 J-1.4363 F180.00
G1 X-16.8113 Y-22.8742 Z-0.1000 F180.00
G2 X-15.4843 Y-21.7091 Z-0.1000 I2.6697 J-1.7023 F180.00
G3 X-13.2786 Y-19.8036 Z-0.1000 I-1.3044 J3.7394 F180.00
G3 X-13.1075 Y-16.6344 Z-0.1000 I-4.6059 J1.8379 F180.00
G3 X-15.3555 Y-14.5184 Z-0.1000 I-3.1161 J-1.0584 F180.00
G3 X-18.6259 Y-14.0012 Z-0.1000 I-2.9725 J-8.1964 F180.00
G1 X-23.5690 Y-14.0012 Z-0.1000 F180.00
G1 X-23.5690 Y-22.9742 Z-0.1000 F180.00
G2 X-22.0629 Y-22.5890 Z-0.1000 I1.4993 J-2.7254 F180.00
G2 X-18.4646 Y-22.5896 Z-0.1000 I1.7771 J-129.4308 F180.00
G2 X-17.8095 Y-22.6670 Z-0.1000 I-0.3145 J-5.4690 F180.00
G1 X-17.4707 Y-21.1187 Z-0.1000 F180.00
G2 X-17.4079 Y-21.1337 Z-0.1000 I-0.3326 J-1.5291 F180.00
G2 X-16.9577 Y-20.7488 Z-0.1000 I3.0773 J-3.1437 F180.00
G2 X-15.6850 Y-20.0536 Z-0.1000 I3.8612 J-5.5561 F180.00
G3 X-14.7359 Y-19.1758 Z-0.1000 I-1.0451 J2.0820 F180.00
G3 X-14.6736 Y-16.9782 Z-0.1000 I-3.1969 J1.1904 F180.00
G3 X-15.4590 Y-16.1881 Z-0.1000 I-1.4345 J-0.6405 F180.00
G3 X-18.6345 Y-15.5862 Z-0.1000 I-2.8726 J-6.4774 F180.00
G1 X-21.9840 Y-15.5862 Z-0.1000 F180.00
G1 X-21.9840 Y-21.0040 Z-0.1000 F180.00
G2 X-18.3986 Y-21.0060 Z-0.1000 I1.7449 J-86.1561 F180.00
G2 X-17.4707 Y-21.1187 Z-0.1000 I-0.3919 J-7.0994 F180.00
G1 X-17.8095 Y-22.6670 Z-0.1000 F180.00
G2 X-16.9084 Y-23.0328 Z-0.1000 I-0.5946 J-2.7582 F180.00
G2 X-16.8113 Y-22.8742 Z-0.1000 I1.1311 J-0.5838 F180.00
G1 X-15.5098 Y-23.7780 Z-0.1000 F180.00
G3 X-15.5551 Y-25.3027 Z-0.1000 I1.3662 J-0.8036 F180.00
G1 X-11.4106 Y-33.4150 Z-0.1000 F180.00
G1 X-12.9589 Y-33.4150 Z-0.1000 F180.00
G1 X-17.0876 Y-25.0570 Z-0.1000 F180.00
G3 X-18.5087 Y-24.1740 Z-0.1000 I-1.4211 J-0.7020 F180.00
G1 X-22.0629 Y-24.1740 Z-0.1000 F180.00
G3 X-23.6479 Y-25.7590 Z-0.1000 I0.0000 J-1.5850 F180.00
G1 X-23.6479 Y-33.4150 Z-0.1000 F180.00
G1 X-25.1540 Y-33.4150 Z-0.1000 F180.00
G1 X-25.1540 Y-32.7975 Z-0.1000 F180.00
G0 X-25.1540 Y-32.7975 Z5.0000
G0 X-20.3990 Y-19.4190 Z5.0000
G0 X-20.3990 Y-19.4190 Z2.9000
G1 X-20.3990 Y-19.4190 Z-0.1000 F180.00
G2 X-18.1510 Y-19.4325 Z-0.1000 I0.9925 J-21.8181 F180.00
G2 X-17.8789 Y-19.4590 Z-0.1000 I-0.7223 J-8.8272 F180.00
G1 X-16.9577 Y-20.7488 Z-0.1000 F180.00
G1 X-17.8789 Y-19.4590 Z-0.1000 F180.00
G2 X-16.3337 Y-18.5947 Z-0.1000 I5.3675 J-7.7822 F180.00
G3 X-16.1043 Y-18.1393 Z-0.1000 I-0.1529 J0.3625 F180.00
G3 X-16.1245 Y-17.6289 Z-0.1000 I-7.6664 J-0.0483 F180.00
G3 X-18.6431 Y-17.1712 Z-0.1000 I-2.2235 J-5.0766 F180.00
G1 X-20.3990 Y-17.1712 Z-0.1000 F180.00
G1 X-20.3990 Y-19.4190 Z-0.1000 F180.00
G0 Z5.0000
(finish operation: MillFace)
(begin operation: T4: 1mm endmill)
(Path: T4: 1mm endmill)
(T4: 1mm endmill)
(begin toolchange)
; M6 T4
M3 S12000.0000
(finish operation: T4: 1mm endmill)
(begin operation: Contour)
(Path: Contour)
(Contour)
(Compensated Tool Path. Diameter: 1.0)
G0 Z5.0000
G0 X-0.5809 Y-0.4776
G0 Z3.0000
G1 X-0.5809 Y-0.4776 Z-0.5000 F120.00
G2 X-0.4345 Y-0.8312 Z-0.5000 I-0.3536 J-0.3536 F120.00
G1 X-0.4345 Y-44.7779 Z-0.5000 F120.00
G2 X-0.9345 Y-45.2779 Z-0.5000 I-0.5000 J-0.0000 F120.00
G1 X-138.6672 Y-45.2779 Z-0.5000 F120.00
G2 X-139.1672 Y-44.7779 Z-0.5000 I-0.0000 J0.5000 F120.00
G1 X-139.1672 Y-0.8312 Z-0.5000 F120.00
G2 X-138.6672 Y-0.3312 Z-0.5000 I0.5000 J0.0000 F120.00
G1 X-0.9345 Y-0.3312 Z-0.5000 F120.00
G2 X-0.5809 Y-0.4776 Z-0.5000 I0.0000 J-0.5000 F120.00
G1 X-0.5809 Y-0.4776 Z-1.0000 F120.00
G2 X-0.4345 Y-0.8312 Z-1.0000 I-0.3536 J-0.3536 F120.00
G1 X-0.4345 Y-44.7779 Z-1.0000 F120.00
G2 X-0.9345 Y-45.2779 Z-1.0000 I-0.5000 J-0.0000 F120.00
G1 X-138.6672 Y-45.2779 Z-1.0000 F120.00
G2 X-139.1672 Y-44.7779 Z-1.0000 I-0.0000 J0.5000 F120.00
G1 X-139.1672 Y-0.8312 Z-1.0000 F120.00
G2 X-138.6672 Y-0.3312 Z-1.0000 I0.5000 J0.0000 F120.00
G1 X-0.9345 Y-0.3312 Z-1.0000 F120.00
G2 X-0.5809 Y-0.4776 Z-1.0000 I0.0000 J-0.5000 F120.00
G1 X-0.5809 Y-0.4776 Z-1.5000 F120.00
G2 X-0.4345 Y-0.8312 Z-1.5000 I-0.3536 J-0.3536 F120.00
G1 X-0.4345 Y-44.7779 Z-1.5000 F120.00
G2 X-0.9345 Y-45.2779 Z-1.5000 I-0.5000 J-0.0000 F120.00
G1 X-138.6672 Y-45.2779 Z-1.5000 F120.00
G2 X-139.1672 Y-44.7779 Z-1.5000 I-0.0000 J0.5000 F120.00
G1 X-139.1672 Y-0.8312 Z-1.5000 F120.00
G2 X-138.6672 Y-0.3312 Z-1.5000 I0.5000 J0.0000 F120.00
G1 X-0.9345 Y-0.3312 Z-1.5000 F120.00
G2 X-0.5809 Y-0.4776 Z-1.5000 I0.0000 J-0.5000 F120.00
G1 X-0.5809 Y-0.4776 Z-2.0000 F120.00
G2 X-0.4345 Y-0.8312 Z-2.0000 I-0.3536 J-0.3536 F120.00
G1 X-0.4345 Y-44.7779 Z-2.0000 F120.00
G2 X-0.9345 Y-45.2779 Z-2.0000 I-0.5000 J-0.0000 F120.00
G1 X-138.6672 Y-45.2779 Z-2.0000 F120.00
G2 X-139.1672 Y-44.7779 Z-2.0000 I-0.0000 J0.5000 F120.00
G1 X-139.1672 Y-0.8312 Z-2.0000 F120.00
G2 X-138.6672 Y-0.3312 Z-2.0000 I0.5000 J0.0000 F120.00
G1 X-0.9345 Y-0.3312 Z-2.0000 F120.00
G2 X-0.5809 Y-0.4776 Z-2.0000 I0.0000 J-0.5000 F120.00
G0 Z5.0000
(finish operation: Contour)
(begin postamble)
M5
G17 G90
; M2
